svgs/rockman_x_dive.svg

<svg width="192" height="192" viewBox="0 0 192 192" fill="none" xmlns="http://www.w3.org/2000/svg">
<path fill-rule="evenodd" clip-rule="evenodd" d="M130 38C126.687 38 124 40.6863 124 44C124 47.3137 126.687 50 130 50L151.026 50L100.141 85.7574L93.2642 50H110C113.314 50 116 47.3137 116 44C116 40.6863 113.314 38 110 38H86.0004H62.0004C58.6867 38 56.0004 40.6863 56.0004 44C56.0004 47.3137 58.6867 50 62.0004 50H81.0443L89.3755 93.3221L18.5508 143.091C16.4097 144.595 15.4907 147.314 16.2796 149.809C17.0686 152.304 19.3836 154 22.0004 154H62.0004C65.3141 154 68.0004 151.314 68.0004 148C68.0004 144.686 65.3141 142 62.0004 142H40.9747L91.8602 106.243L98.7366 142H82.0004C78.6867 142 76.0004 144.686 76.0004 148C76.0004 151.314 78.6867 154 82.0004 154H106H130C133.314 154 136 151.314 136 148C136 144.686 133.314 142 130 142H110.957L102.625 98.6779L173.45 48.9092C175.591 47.4046 176.51 44.686 175.721 42.191C174.932 39.6959 172.617 38 170 38L130 38Z" fill="black"/>
</svg>

<svg xmlns="http://www.w3.org/2000/svg" width="192" height="192" fill="none" xmlns:v="https://vecta.io/nano"><path fill-rule="evenodd" d="M130 38a6 6 0 1 0 0 12h21.026l-50.885 35.757L93.264 50H110a6 6 0 1 0 0-12H86 62a6 6 0 1 0 0 12h19.044l8.331 43.322-70.825 49.769A6 6 0 0 0 22 154h40a6 6 0 1 0 0-12H40.975l50.886-35.757L98.737 142H82a6 6 0 1 0 0 12h24 24a6 6 0 1 0 0-12h-19.043l-8.332-43.322 70.825-49.769A6 6 0 0 0 170 38h-40z" fill="#000"/></svg>
